X:1
T:Partition sans titre
C:Compositeur / Arrangeur
L:1/8
M:6/8
I:linebreak $
K:G
V:1 treble nm="Violon" snm="Vln."
V:1
"G" DEG BAG | DBG GB/c/d |"C" e2 e"G" dBG |"D" A2 A AGE |"G" D2 G BAG | DBG GB/c/d | %6
"C" e2 e"G" dBG |"D" AGE"G" G3 ::"G" deg bgg | agg bge | dgg bgg |"D" a2 a age |"G" dgg bgg | %13
 aga bgd | edg dBG |"D" AGE"G" G3 :| %16
